X: 29666
T: Norwegian Alps
R: polka
M: 2/4
K: Eminor
EE B2|FG E2|EEBA|FG E2|
F2 G2|E2 B2|F2 G2|E2 BB|
F2 G2|EE B-|B4|FG BA|GF E2|E4|

